image/shop.svg

<svg id="Filled_Expand" height="512" viewBox="0 0 64 64" width="512" xmlns="http://www.w3.org/2000/svg" data-name="Filled Expand"><path d="m9 25h46v36h-46z" fill="#8eb4f6"/><path d="m21 41a6 6 0 0 1 6 6v14a0 0 0 0 1 0 0h-12a0 0 0 0 1 0 0v-14a6 6 0 0 1 6-6z" fill="#8c6423"/><path d="m33 41h16v12h-16z" fill="#ffe678"/><path d="m8 36a4 4 0 0 1 -4-4l2-10h6v10a4 4 0 0 1 -4 4z" fill="#e65974"/><path d="m12 22h8a0 0 0 0 1 0 0v10a4 4 0 0 1 -4 4 4 4 0 0 1 -4-4v-10a0 0 0 0 1 0 0z" fill="#fff"/><path d="m20 22h8a0 0 0 0 1 0 0v10a4 4 0 0 1 -4 4 4 4 0 0 1 -4-4v-10a0 0 0 0 1 0 0z" fill="#e65974"/><path d="m28 22h8a0 0 0 0 1 0 0v10a4 4 0 0 1 -4 4 4 4 0 0 1 -4-4v-10a0 0 0 0 1 0 0z" fill="#fff"/><path d="m36 22h8a0 0 0 0 1 0 0v10a4 4 0 0 1 -4 4 4 4 0 0 1 -4-4v-10a0 0 0 0 1 0 0z" fill="#e65974"/><path d="m44 22h8a0 0 0 0 1 0 0v10a4 4 0 0 1 -4 4 4 4 0 0 1 -4-4v-10a0 0 0 0 1 0 0z" fill="#fff"/><path d="m56 36a4 4 0 0 1 -4-4v-10h6l2 10a4 4 0 0 1 -4 4z" fill="#e65974"/><path d="m6 4h52v18h-52z" fill="#ffe678"/><path d="m49 40h-16a1 1 0 0 0 -1 1v12a1 1 0 0 0 1 1h16a1 1 0 0 0 1-1v-12a1 1 0 0 0 -1-1zm-1 12h-14v-10h14z"/><path d="m60.9805 31.8037-1.9805-9.9028v-17.9009a1 1 0 0 0 -1-1h-52a1 1 0 0 0 -1 1v17.9009l-1.98 9.9028a.9833.9833 0 0 0 -.02.1963 5.0059 5.0059 0 0 0 5 5v24a1 1 0 0 0 1 1h46a1 1 0 0 0 1-1v-24a5.0059 5.0059 0 0 0 5-5 .9833.9833 0 0 0 -.0195-.1963zm-3.9805-26.8037v16h-50v-16zm-6 27a3 3 0 0 1 -6 0v-9h6zm-38-9h6v9a3 3 0 0 1 -6 0zm8 0h6v9a3 3 0 0 1 -6 0zm8 0h6v9a3 3 0 0 1 -6 0zm8 0h6v9a3 3 0 0 1 -6 0zm-31.9985 9.0923 1.8185-9.0923h4.18v9a3 3 0 0 1 -5.9985.0923zm20.9985 27.9077h-10v-13a5 5 0 0 1 10 0zm28 0h-26v-13a7 7 0 0 0 -14 0v13h-4v-23.4266a5.0253 5.0253 0 0 0 2-1.5763 4.9957 4.9957 0 0 0 8 0 4.9957 4.9957 0 0 0 8 0 4.9957 4.9957 0 0 0 8 0 4.9957 4.9957 0 0 0 8 0 4.9957 4.9957 0 0 0 8 0 5.0253 5.0253 0 0 0 2 1.5763zm2-25a3.0033 3.0033 0 0 1 -3-3v-9h4.18l1.8183 9.0923a3.0036 3.0036 0 0 1 -2.9983 2.9077z"/><path d="m14 16a1 1 0 0 0 -2 0 2.002 2.002 0 0 0 2 2h2a2.002 2.002 0 0 0 2-2v-2a2.002 2.002 0 0 0 -2-2h-2v-2h2a1 1 0 0 0 2 0 2.002 2.002 0 0 0 -2-2h-2a2.002 2.002 0 0 0 -2 2v2a2.002 2.002 0 0 0 2 2h2v2z"/><path d="m48 16a1 1 0 0 0 -2 0 2.002 2.002 0 0 0 2 2h2a2.002 2.002 0 0 0 2-2v-2a2.002 2.002 0 0 0 -2-2h-2v-2h2a1 1 0 0 0 2 0 2.002 2.002 0 0 0 -2-2h-2a2.002 2.002 0 0 0 -2 2v2a2.002 2.002 0 0 0 2 2h2v2z"/><path d="m19.7241 17.9614a1.001 1.001 0 0 0 1.124-.4316l1.6519-2.6431 1.6519 2.6433a1 1 0 0 0 .8481.47 1.0106 1.0106 0 0 0 .2759-.0386 1 1 0 0 0 .7241-.9614v-8a1 1 0 0 0 -2 0v4.5132l-.6519-1.043a1.0392 1.0392 0 0 0 -1.6962 0l-.6519 1.043v-4.5132a1 1 0 0 0 -2 0v8a1 1 0 0 0 .7241.9614z"/><path d="m28 18h3a1 1 0 0 0 0-2h-2v-2h2a1 1 0 0 0 0-2h-2v-2h2a1 1 0 0 0 0-2h-3a1 1 0 0 0 -1 1v8a1 1 0 0 0 1 1z"/><path d="m40 10h1v7a1 1 0 0 0 2 0v-7h1a1 1 0 0 0 0-2h-4a1 1 0 0 0 0 2z"/><path d="m34 18h3a1 1 0 0 0 0-2h-2v-2h2a1 1 0 0 0 0-2h-2v-2h2a1 1 0 0 0 0-2h-3a1 1 0 0 0 -1 1v8a1 1 0 0 0 1 1z"/></svg>

<?xml version="1.0"?>
<svg xmlns="http://www.w3.org/2000/svg" id="Line_Epand" data-name="Line Epand" viewBox="0 0 64 64" width="512" height="512"><path d="M49,40H33a1,1,0,0,0-1,1V53a1,1,0,0,0,1,1H49a1,1,0,0,0,1-1V41A1,1,0,0,0,49,40ZM48,52H34V42H48Z"/><path d="M60.9805,31.8037,59,21.9009V4a1,1,0,0,0-1-1H6A1,1,0,0,0,5,4V21.9009L3.02,31.8037A.9833.9833,0,0,0,3,32a5.0059,5.0059,0,0,0,5,5V61a1,1,0,0,0,1,1H55a1,1,0,0,0,1-1V37a5.0059,5.0059,0,0,0,5-5A.9833.9833,0,0,0,60.9805,31.8037ZM57,5V21H7V5ZM51,32a3,3,0,0,1-6,0V23h6ZM13,23h6v9a3,3,0,0,1-6,0Zm8,0h6v9a3,3,0,0,1-6,0Zm8,0h6v9a3,3,0,0,1-6,0Zm8,0h6v9a3,3,0,0,1-6,0ZM5.0015,32.0923,6.82,23H11v9a3,3,0,0,1-5.9985.0923ZM26,60H16V47a5,5,0,0,1,10,0Zm28,0H28V47a7,7,0,0,0-14,0V60H10V36.5734a5.0253,5.0253,0,0,0,2-1.5763,4.9957,4.9957,0,0,0,8,0,4.9957,4.9957,0,0,0,8,0,4.9957,4.9957,0,0,0,8,0,4.9957,4.9957,0,0,0,8,0,4.9957,4.9957,0,0,0,8,0,5.0253,5.0253,0,0,0,2,1.5763Zm2-25a3.0033,3.0033,0,0,1-3-3V23h4.18l1.8183,9.0923A3.0036,3.0036,0,0,1,56,35Z"/><path d="M14,16a1,1,0,0,0-2,0,2.002,2.002,0,0,0,2,2h2a2.002,2.002,0,0,0,2-2V14a2.002,2.002,0,0,0-2-2H14V10h2a1,1,0,0,0,2,0,2.002,2.002,0,0,0-2-2H14a2.002,2.002,0,0,0-2,2v2a2.002,2.002,0,0,0,2,2h2v2Z"/><path d="M48,16a1,1,0,0,0-2,0,2.002,2.002,0,0,0,2,2h2a2.002,2.002,0,0,0,2-2V14a2.002,2.002,0,0,0-2-2H48V10h2a1,1,0,0,0,2,0,2.002,2.002,0,0,0-2-2H48a2.002,2.002,0,0,0-2,2v2a2.002,2.002,0,0,0,2,2h2v2Z"/><path d="M19.7241,17.9614a1.001,1.001,0,0,0,1.124-.4316L22.5,14.8867,24.1519,17.53A1,1,0,0,0,25,18a1.0106,1.0106,0,0,0,.2759-.0386A1,1,0,0,0,26,17V9a1,1,0,0,0-2,0v4.5132l-.6519-1.043a1.0392,1.0392,0,0,0-1.6962,0L21,13.5132V9a1,1,0,0,0-2,0v8A1,1,0,0,0,19.7241,17.9614Z"/><path d="M28,18h3a1,1,0,0,0,0-2H29V14h2a1,1,0,0,0,0-2H29V10h2a1,1,0,0,0,0-2H28a1,1,0,0,0-1,1v8A1,1,0,0,0,28,18Z"/><path d="M40,10h1v7a1,1,0,0,0,2,0V10h1a1,1,0,0,0,0-2H40a1,1,0,0,0,0,2Z"/><path d="M34,18h3a1,1,0,0,0,0-2H35V14h2a1,1,0,0,0,0-2H35V10h2a1,1,0,0,0,0-2H34a1,1,0,0,0-1,1v8A1,1,0,0,0,34,18Z"/></svg>
